src/parts/clothes/Hoodie.svg

<svg>
  <g
    id="Clothing/Hoodie"
    transform="translate(0.000000, 170.000000)"
  >
    <defs>
      <path
        id="Hoodie-path1"
        d="M108,13.0708856 C90.0813006,15.075938 76.2798424,20.5518341 76.004203,34.6449676 C50.1464329,45.5680933 32,71.1646257 32,100.999485 L32,100.999485 L32,110 L232,110 L232,100.999485 C232,71.1646257 213.853567,45.5680933 187.995797,34.6449832 C187.720158,20.5518341 173.918699,15.075938 156,13.0708856 L156,32 L156,32 C156,45.254834 145.254834,56 132,56 L132,56 C118.745166,56 108,45.254834 108,32 L108,13.0708856 Z"
      />
    </defs>
    <mask
      id="Hoodie-mask1"
      fill="white"
    >
      <use href="#Hoodie-path1" />
    </mask>
    <use
      class="CustomColor"
      fill="var(--avataaar-shirt-color)"
      fillRule="evenodd"
      href="#Hoodie-path1"
    />
    <path
      id="Straps"
      d="M102,61.7390531 L102,110 L95,110 L95,58.1502625 C97.2037542,59.4600576 99.5467694,60.6607878 102,61.7390531 Z M169,58.1502625 L169,98.5 C169,100.432997 167.432997,102 165.5,102 C163.567003,102 162,100.432997 162,98.5 L162,61.7390531 C164.453231,60.6607878 166.796246,59.4600576 169,58.1502625 Z"
      fill="#F4F4F4"
      fillRule="evenodd"
      mask="url('#Hoodie-mask1')"
    />
    <path
      id="Shadow"
      d="M90.9601329,12.7243537 C75.9093095,15.5711782 65.5,21.2428847 65.5,32.3076923 C65.5,52.0200095 98.5376807,68 132,68 C165.462319,68 198.5,52.0200095 198.5,32.3076923 C198.5,21.2428847 188.09069,15.5711782 173.039867,12.7243537 C182.124921,16.0744598 188,21.7060546 188,31.0769231 C188,51.4689754 160.178795,68 132,68 C103.821205,68 76,51.4689754 76,31.0769231 C76,21.7060546 81.8750795,16.0744598 90.9601329,12.7243537 Z"
      opacity="0.16"
      fill="#000000"
      fillRule="evenodd"
      mask="url('#Hoodie-mask1')"
    />
  </g>
</svg>

<svg>
  <g id="Clothing/Hoodie" transform="translate(0 170)">
    <defs>
      <path id="Hoodie-path1" d="M108 13.07c-17.919 2.006-31.72 7.482-31.996 21.575C50.146 45.568 32 71.165 32 100.999V110h200v-9c0-29.835-18.146-55.432-44.004-66.355-.276-14.093-14.077-19.57-31.996-21.574V32c0 13.255-10.745 24-24 24s-24-10.745-24-24V13.07Z"/>
    </defs>
    <mask id="Hoodie-mask1" fill="#fff">
      <use href="#Hoodie-path1"/>
    </mask>
    <use fill="var(--avataaar-shirt-color)" class="CustomColor" href="#Hoodie-path1"/>
    <path id="Straps" fill="#F4F4F4" d="M102 61.74V110h-7V58.15a64.54 64.54 0 0 0 7 3.59Zm67-3.59V98.5a3.5 3.5 0 1 1-7 0V61.74a64.54 64.54 0 0 0 7-3.59Z" mask="url('#Hoodie-mask1')"/>
    <path id="Shadow" fill="#000" d="M90.96 12.724C75.91 15.571 65.5 21.243 65.5 32.308 65.5 52.02 98.538 68 132 68s66.5-15.98 66.5-35.692c0-11.065-10.41-16.737-25.46-19.584 9.085 3.35 14.96 8.982 14.96 18.353C188 51.469 160.179 68 132 68S76 51.469 76 31.077c0-9.37 5.875-15.003 14.96-18.353Z" mask="url('#Hoodie-mask1')" opacity=".16"/>
  </g>
</svg>
